icons/dark/xls.svg

<svg width="16" height="16" viewBox="0 0 16 16" fill="none" xmlns="http://www.w3.org/2000/svg">
<path fill-rule="evenodd" clip-rule="evenodd" d="M4 1L3 2V14L4 15H13L14 14V5L13.7071 4.29289L10.7071 1.29289L10 1H4ZM4 14V2H9V6H13V14H4ZM13 5L10 2V5H13Z" fill="#C5C5C5"/>
<path d="M11 13L9.06667 10L11 7H9.8L8.46667 9.26667L7.13333 7H5.93333L7.86667 10L5.93333 13H7.13333L8.46667 10.7333L9.8 13H11Z" fill="#C5C5C5"/>
</svg>

<svg xmlns="http://www.w3.org/2000/svg" width="16" height="16" fill="#c5c5c5" xmlns:v="https://vecta.io/nano"><path fill-rule="evenodd" d="M4 1L3 2v12l1 1h9l1-1V5l-.293-.707-3-3L10 1H4zm0 13V2h5v4h4v8H4zm9-9l-3-3v3h3z"/><path d="M11 13l-1.933-3L11 7H9.8L8.467 9.267 7.133 7h-1.2l1.933 3-1.933 3h1.2l1.333-2.267L9.8 13H11z"/></svg>
